X: 441
T: Bu Aşk Bir Bahr-i Ummândır
C: Yeniköylü Hâdi Bey
O: Turkey
F: http://compmusic.upf.edu/node/140
N: segah--ilahi--frenkcin--bu_ask--yenikoylu_hadi_bey
N: makam= segah
N: form= ilahi
N: usul= frenkcin = 12/4
M: 12/4
L: 1/16
K: C _1/4B _1/4e ^f 
Q: 1/4=60
%%MIDI tuningsystem comma53
B4 B2c2 B2A2 d4 d2e2 d2ef g2fe dcde d2cB dccB B8  | 
w:  Bu  aşk  *  *  *  bir  bahr_ *  *  *  *  i  *  *  um *  *  *  *  *  *  mân *  *  *  dır    | 
B2d2 d2cd d2B2 A3G BABc BcBA G2A2 A4 d4 dccB B8  | 
w:  Bu *  na  *  *  *  *  had *  dü  *  *  *  *  *  *  *  ke *  nâr_ *  ol *  *  *  maz    | 
B4 B2c2 B2A2 d4 d2e2 d2ef g2fe dcde d2cB dccB B8  | 
w:  De lî *  *  *  lim  sırr_ *  *  *  *  ı  *  *  Kur *  *  *  *  *  *  an *  *  *  dır    | 
B2d2 d2cd d2B2 A3G BABc BcBA G2A2 A4 d4 dccB B8  | 
w:  Bu *  nu  *  *  *  *  bi *  len *  *  *  *  *  *  *  de  *  âr_ *  ol *  *  *  maz    | 
B4 B2c2 B2A2 d4 d2e2 d2ef g2fe dcde d2cB dccB B8  | 
w:  Bu  aşk  *  *  *  bir  bahr_ *  *  *  *  i  *  *  um *  *  *  *  *  *  mân *  *  *  dır    | 
B2d2 d2cd d2B2 A3G BABc BcBA G2A2 A4 d4 dccB B8  | 
w:  Bu *  na  *  *  *  *  had *  dü  *  *  *  *  *  *  *  ke *  nâr_ *  ol *  *  *  maz    | 
B4 B2c2 B2A2 d4 d2e2 d2ef g2fe dcde d2cB dccB B8  | 
w:  De lî *  *  *  lim  sırr_ *  *  *  *  ı  *  *  Kur *  *  *  *  *  *  an *  *  *  dır    | 
B2d2 d2cd d2B2 A3G BABc BcBA G2A2 A4 d4 dccB B8  | 
w:  Bu *  nu  *  *  *  *  bi *  len *  *  *  *  *  *  *  de  *  âr_ *  ol *  *  *  maz    | 
|


